X:1
T:A barátok, a barátok
T: 
C:Hungarian song
Z:Public Domain
L:1/4
Q:1/4=120
M:4/4
K:C
V:1 treble nm="MusicXML Part"
%%MIDI program 0
V:1
"Am" e e e c | e e e c | A B"E" c B |"Am" A2 A z!fine! :|"G" G B G B |"C" c c c2 |"G" d d c d | %7
w: A ba- rá- tok,|a ba- rá- tok|fa- ci- põ- ben|jár- nak,|Lám én sze- gény|szol- ga- legény|csak e- gye- dül|
"C" e2 c z!D.C.! |] %8
w: há- lok,|

